packages/foundations/assets/icons/functional/images/transportation/ship_28.svg

<svg width="28" height="28" viewBox="0 0 28 28" fill="none" xmlns="http://www.w3.org/2000/svg">
<g clip-path="url(#clip0_2214_7245)">
<path fill-rule="evenodd" clip-rule="evenodd" d="M6.12726 21.7362C6.42217 22.1461 7.06711 23.1827 8.3125 23.1883C9.61979 23.1942 10.127 22.1924 10.4772 21.7615C10.8273 21.3306 11.4851 21.3305 11.8353 21.7614C12.1855 22.1923 12.6816 23.1883 13.9988 23.1883C15.3159 23.1883 15.8381 22.1633 16.1648 21.7614C16.4915 21.3594 17.0859 21.3325 17.4485 21.6806C17.811 22.0288 18.3753 23.1958 19.6809 23.1883C20.9866 23.1808 21.5254 22.1635 21.8523 21.7614C22.1791 21.3593 22.7738 21.3325 23.1363 21.681C23.4988 22.0294 24.5467 23.1789 25.3733 23.1883C25.8926 23.1942 26.25 23.58 26.25 24.0633C26.25 24.512 25.87 24.9383 25.375 24.9383C24.492 24.9383 23.5441 24.4838 22.5312 23.575C21.5949 24.4788 20.6448 24.9308 19.6809 24.9311C18.717 24.9313 17.7713 24.479 16.8438 23.5741C15.8803 24.4787 14.9324 24.9334 14 24.9383C13.0676 24.9431 12.1197 24.4887 11.1562 23.575C10.1647 24.4838 9.21692 24.9383 8.31305 24.9383C7.40919 24.9383 6.46108 24.4841 5.46875 23.5759C4.50014 24.4793 3.55223 24.9335 2.625 24.9383C2.14207 24.9408 1.75 24.5465 1.75 24.0633C1.75 23.6145 2.08779 23.2447 2.52296 23.1942C3.65771 23.0737 4.42233 22.1977 4.78923 21.762C5.15613 21.3264 5.83235 21.3264 6.12726 21.7362ZM15.324 3.06323C16.4273 3.06323 17.489 3.7755 17.8377 4.93207C18.5292 7.22547 19.219 9.5192 19.9071 11.8132H24.5001C24.9959 11.8132 25.3926 12.2248 25.3745 12.7203C25.265 15.7026 23.8705 18.4917 21.5503 20.3686C21.1746 20.6725 20.6236 20.6143 20.3197 20.2386C20.0158 19.8629 20.074 19.3119 20.4497 19.008C22.0911 17.6802 23.0693 16.0536 23.5427 13.5632H3.49995C3.05122 13.5632 2.62495 13.1919 2.62495 12.6882C2.62495 12.1846 2.9914 11.8134 3.49995 11.8132C8.35991 11.8113 13.22 11.8113 18.0801 11.8132L17.29 9.18823H5.25C4.76675 9.18823 4.375 8.79648 4.375 8.31323C4.375 7.8645 4.71279 7.49466 5.14796 7.44411L5.25 7.43823H16.7641L16.1619 5.43617C16.0607 5.09999 15.7508 4.81323 15.324 4.81323H3.49995C3.0167 4.81323 2.62495 4.42148 2.62495 3.93823C2.62495 3.4895 2.98631 3.06348 3.49995 3.06323C7.44119 3.06128 11.3825 3.06128 15.324 3.06323ZM13.5625 15.3132C14.2874 15.3132 14.875 15.9009 14.875 16.6257C14.875 17.3506 14.2874 17.9382 13.5625 17.9382C12.8376 17.9382 12.25 17.3506 12.25 16.6257C12.25 15.9009 12.8376 15.3132 13.5625 15.3132ZM17.9375 15.3132C18.6624 15.3132 19.25 15.9009 19.25 16.6257C19.25 17.3506 18.6624 17.9382 17.9375 17.9382C17.2126 17.9382 16.625 17.3506 16.625 16.6257C16.625 15.9009 17.2126 15.3132 17.9375 15.3132ZM9.1875 15.3132C9.91237 15.3132 10.5 15.9009 10.5 16.6257C10.5 17.3506 9.91237 17.9382 9.1875 17.9382C8.46263 17.9382 7.875 17.3506 7.875 16.6257C7.875 15.9009 8.46263 15.3132 9.1875 15.3132ZM4.8125 15.3132C5.53737 15.3132 6.125 15.9009 6.125 16.6257C6.125 17.3506 5.53737 17.9382 4.8125 17.9382C4.08763 17.9382 3.5 17.3506 3.5 16.6257C3.5 15.9009 4.08763 15.3132 4.8125 15.3132Z" fill="#1A1C1F"/>
</g>
<defs>
<clipPath id="clip0_2214_7245">
<rect width="28" height="28" fill="white"/>
</clipPath>
</defs>
</svg>

<svg xmlns="http://www.w3.org/2000/svg" width="28" height="28" fill="none"><g clip-path="url(#a)"><path fill="#1A1C1F" fill-rule="evenodd" d="M6.127 21.736c.295.41.94 1.447 2.186 1.452 1.307.006 1.814-.996 2.164-1.426a.875.875 0 0 1 1.358 0c.35.43.847 1.426 2.164 1.426s1.84-1.025 2.166-1.427a.875.875 0 0 1 1.284-.08c.362.348.926 1.515 2.232 1.507 1.306-.007 1.844-1.024 2.171-1.427a.875.875 0 0 1 1.284-.08c.363.348 1.41 1.498 2.237 1.507.52.006.877.392.877.875a.89.89 0 0 1-.875.875q-1.324 0-2.844-1.363-1.404 1.356-2.85 1.356t-2.837-1.357Q15.398 24.932 14 24.938t-2.844-1.363q-1.487 1.363-2.843 1.363T5.47 23.576q-1.453 1.354-2.844 1.362a.875.875 0 0 1-.102-1.744c1.135-.12 1.9-.996 2.266-1.432s1.043-.436 1.338-.026m9.197-18.673a2.63 2.63 0 0 1 2.514 1.87q1.037 3.439 2.07 6.88H24.5c.496 0 .893.412.875.907a10.33 10.33 0 0 1-3.825 7.649.875.875 0 0 1-1.1-1.361c1.641-1.328 2.62-2.954 3.093-5.445H3.5a.884.884 0 0 1-.875-.875c0-.503.366-.875.875-.875q7.29-.003 14.58 0l-.79-2.625H5.25a.875.875 0 0 1-.102-1.744l.102-.006h11.514l-.602-2.002a.87.87 0 0 0-.838-.623H3.5a.875.875 0 1 1 0-1.75q5.912-.003 11.824 0m-1.761 12.25a1.313 1.313 0 1 1 0 2.625 1.313 1.313 0 0 1 0-2.625m4.374 0a1.313 1.313 0 1 1 0 2.625 1.313 1.313 0 0 1 0-2.625m-8.75 0a1.313 1.313 0 1 1 0 2.625 1.313 1.313 0 0 1 0-2.625m-4.374 0a1.313 1.313 0 1 1 0 2.625 1.313 1.313 0 0 1 0-2.625" clip-rule="evenodd"/></g><defs><clipPath id="a"><path fill="#fff" d="M0 0h28v28H0z"/></clipPath></defs></svg>
